!!! OTL: Berkowitz183
!!! Chapter: 1
!!! Section: II
!!! Page: 43
!!! Mode: 
!!! Encoder: DJB
**kern
*staff1
*I"Piano
=1-
*clefC4
*k[f#]
*G:
*M6/8
8D/L
8E/
8F#/J
4G/
8D/
=2
8E/L
8D/
8C/J
4D/
8G/
=3
8A\L
8B\
8c\J
8.B\L
16A\K
8G\J
=4
[4.A\
4A\]
8G/
=5
8A\L
8B\
8c\J
8.d\L
16B\K
8A\J
=6
8.D/L
16E/K
8D/J
4BB/
8BB/
=7
8AA/L
8BB/
8C/J
8D/L
8E/
8F#/J
=8
!!linebreak:original
4.G/
8r
4r
==
*-
